projects/flag-game/flags/Faroe Islands.svg

<svg viewBox="0 0 1000 727" xmlns="http://www.w3.org/2000/svg"><path d="m0 0h1000v727h-1000z" fill="#fff"/><g fill-rule="evenodd"><path d="m0 454.546875h272.726562v272.726563h181.820313v-272.726563h545.453125v-181.820313h-545.453125v-272.726562h-181.820313v272.726562h-272.726562zm0 0" fill="#0065bd"/><path d="m0 409.089844h318.183594v318.183594h90.90625v-318.183594h590.910156v-90.90625h-590.910156v-318.183594h-90.90625v318.183594h-318.183594zm0 0" fill="#ed2939"/></g></svg>

<?xml version="1.0" encoding="UTF-8"?>
<svg xmlns="http://www.w3.org/2000/svg" xmlns:xlink="http://www.w3.org/1999/xlink" viewBox="0 0 1000 727" version="1.1">
<g id="surface430">
<rect x="0" y="0" width="1000" height="727" style="fill:rgb(99.998474%,99.998474%,99.998474%);fill-opacity:1;stroke:none;"/>
<path style=" stroke:none;fill-rule:evenodd;fill:rgb(0%,39.607239%,74.116516%);fill-opacity:1;" d="M 0 454.546875 L 272.726562 454.546875 L 272.726562 727.273438 L 454.546875 727.273438 L 454.546875 454.546875 L 1000 454.546875 L 1000 272.726562 L 454.546875 272.726562 L 454.546875 0 L 272.726562 0 L 272.726562 272.726562 L 0 272.726562 Z M 0 454.546875 "/>
<path style=" stroke:none;fill-rule:evenodd;fill:rgb(92.939758%,16.078186%,22.3526%);fill-opacity:1;" d="M 0 409.089844 L 318.183594 409.089844 L 318.183594 727.273438 L 409.089844 727.273438 L 409.089844 409.089844 L 1000 409.089844 L 1000 318.183594 L 409.089844 318.183594 L 409.089844 0 L 318.183594 0 L 318.183594 318.183594 L 0 318.183594 Z M 0 409.089844 "/>
</g>
</svg>
